static/cards/FrenchDeck/cyberwave/card_hearts_10.svg

<svg xmlns="http://www.w3.org/2000/svg" width="822" height="1122" fill="none" viewBox="0 0 822 1122"><rect width="822" height="1122" fill="#1a0033" rx="20"/><g fill="#b366ff" clip-path="url(#a)"><path d="M56.577 159q-1.536 0-2.304-.512-.64-.64-.64-2.048v-.896q-.001-2.816 2.944-2.816h15.615v-72.32l-14.847 8.96q-1.152.768-2.048.768-1.024 0-1.792-1.408l-.513-.768q-.51-.896-.511-1.664 0-1.408 1.535-2.304L72.96 72.6q1.025-.64 2.433-.64h.767q2.945 0 2.945 2.944v77.824H94.72q2.945 0 2.945 2.816v.896q0 1.408-.769 2.048-.639.512-2.175.512zm92.843 1.92q-19.713 0-29.952-11.776-10.24-11.904-10.24-33.664t10.24-33.536Q129.707 70.04 149.42 70.04q19.712 0 29.952 11.904 10.24 11.775 10.24 33.536 0 21.76-10.24 33.664-10.24 11.776-29.952 11.776m20.48-79.232q-7.937-5.76-20.48-5.76-16.512 0-25.088 10.112-8.448 9.984-8.448 29.44 0 19.968 8.832 29.952zm-20.48 73.344q16.512 0 24.96-9.984 8.576-10.112 8.576-29.568 0-19.2-8.449-29.44l-45.055 63.616q7.68 5.376 19.968 5.376M120.798 218.497c-10.18-10.18-26.685-10.18-36.865 0s-10.18 26.685 0 36.865l33.179 33.179a5.213 5.213 0 0 0 7.373 0l33.179-33.179-.004-.003c9.814-10.207 9.692-26.436-.365-36.493s-26.287-10.179-36.493-.365zM757.423 959q1.536 0 2.304.512.64.64.64 2.048v.896q0 2.816-2.944 2.816h-15.616v72.318l14.848-8.96c.768-.51 1.451-.77 2.048-.77q1.024 0 1.792 1.41l.512.77c.342.6.512 1.15.512 1.66q0 1.41-1.536 2.31l-18.944 11.39c-.682.43-1.493.64-2.432.64h-.768q-2.943 0-2.943-2.94v-77.828h-15.617q-2.943 0-2.944-2.816v-.896q0-1.408.768-2.048.64-.512 2.176-.512zm-92.843-1.92q19.713 0 29.952 11.776 10.24 11.904 10.24 33.664 0 21.765-10.24 33.54c-6.826 7.93-16.81 11.9-29.952 11.9-13.141 0-23.125-3.97-29.952-11.9q-10.24-11.775-10.24-33.54 0-21.76 10.24-33.664 10.24-11.776 29.952-11.776m-20.48 79.23q7.937 5.76 20.48 5.76 16.512 0 25.088-10.11c5.632-6.66 8.448-16.47 8.448-29.44q0-19.968-8.832-29.952zm20.48-73.342q-16.512 0-24.96 9.984-8.576 10.111-8.576 29.568c0 12.8 2.816 22.61 8.449 29.44l45.055-63.616q-7.68-5.376-19.968-5.376M693.202 899.503c10.18 10.18 26.685 10.18 36.865 0s10.18-26.685 0-36.865l-33.179-33.179a5.213 5.213 0 0 0-7.373 0l-33.179 33.179.004.003c-9.814 10.207-9.692 26.436.365 36.493s26.287 10.179 36.493.365z"/></g><path stroke="#b366ff" stroke-width="8" d="M377.261 464.326c8.618-8.618 22.59-8.619 31.209-.001l2.777 2.777 2.827-2.718c8.639-8.306 22.379-8.203 30.892.31 8.514 8.514 8.617 22.254.31 30.893l-.137.143-32.983 32.982a1.213 1.213 0 0 1-1.716.001l-33.179-33.179c-8.618-8.618-8.618-22.59 0-31.208ZM209.261 626.326c8.618-8.618 22.59-8.619 31.209-.001l2.777 2.777 2.827-2.718c8.639-8.306 22.379-8.203 30.892.31 8.514 8.514 8.617 22.254.31 30.893l-.137.143-32.983 32.982a1.213 1.213 0 0 1-1.716.001l-33.179-33.179c-8.618-8.618-8.618-22.59 0-31.208ZM373.261 626.326c8.618-8.618 22.59-8.619 31.209-.001l2.777 2.777 2.827-2.718c8.639-8.306 22.379-8.203 30.892.31 8.514 8.514 8.617 22.254.31 30.893l-.137.143-32.983 32.982a1.213 1.213 0 0 1-1.716.001l-33.179-33.179c-8.618-8.618-8.618-22.59 0-31.208ZM377.261 788.326c8.618-8.618 22.59-8.619 31.209-.001l2.777 2.777 2.827-2.718c8.639-8.306 22.379-8.203 30.892.31 8.514 8.514 8.617 22.254.31 30.893l-.137.143-32.983 32.982a1.213 1.213 0 0 1-1.716.001l-33.179-33.179c-8.618-8.618-8.618-22.59 0-31.208ZM545.261 626.326c8.618-8.618 22.59-8.619 31.209-.001l2.777 2.777 2.827-2.718c8.639-8.306 22.379-8.203 30.892.31 8.514 8.514 8.617 22.254.31 30.893l-.137.143-32.983 32.982a1.213 1.213 0 0 1-1.716.001l-33.179-33.179c-8.618-8.618-8.618-22.59 0-31.208ZM545.261 464.326c8.618-8.618 22.59-8.619 31.209-.001l2.777 2.777 2.827-2.718c8.639-8.306 22.379-8.203 30.892.31 8.514 8.514 8.617 22.254.31 30.893l-.137.143-32.983 32.982a1.213 1.213 0 0 1-1.716.001l-33.179-33.179c-8.618-8.618-8.618-22.59 0-31.208ZM209.261 464.326c8.618-8.618 22.59-8.619 31.209-.001l2.777 2.777 2.827-2.718c8.639-8.306 22.379-8.203 30.892.31 8.514 8.514 8.617 22.254.31 30.893l-.137.143-32.983 32.982a1.213 1.213 0 0 1-1.716.001l-33.179-33.179c-8.618-8.618-8.618-22.59 0-31.208ZM545.261 302.326c8.618-8.618 22.59-8.619 31.209-.001l2.777 2.777 2.827-2.718c8.639-8.306 22.379-8.203 30.892.31 8.514 8.514 8.617 22.254.31 30.893l-.137.143-32.983 32.982a1.213 1.213 0 0 1-1.716.001l-33.179-33.179c-8.618-8.618-8.618-22.59 0-31.208ZM209.261 302.326c8.618-8.618 22.59-8.619 31.209-.001l2.777 2.777 2.827-2.718c8.639-8.306 22.379-8.203 30.892.31 8.514 8.514 8.617 22.254.31 30.893l-.137.143-32.983 32.982a1.213 1.213 0 0 1-1.716.001l-33.179-33.179c-8.618-8.618-8.618-22.59 0-31.208ZM377.261 302.326c8.618-8.618 22.59-8.619 31.209-.001l2.777 2.777 2.827-2.718c8.639-8.306 22.379-8.203 30.892.31 8.514 8.514 8.617 22.254.31 30.893l-.137.143-32.983 32.982a1.213 1.213 0 0 1-1.716.001l-33.179-33.179c-8.618-8.618-8.618-22.59 0-31.208Z"/><defs><clipPath id="a"><path fill="#fff" d="M46 48h722v1022H46z"/></clipPath></defs></svg>

<svg width="822" height="1122" viewBox="0 0 822 1122" fill="none" xmlns="http://www.w3.org/2000/svg">
<rect width="822" height="1122" rx="20" fill="#1A0033"/>
<g clip-path="url(#clip0_31_2021)">
<path d="M56.5765 159C55.5525 159 54.7845 158.829 54.2725 158.488C53.8458 158.061 53.6325 157.379 53.6325 156.44V155.544C53.6325 153.667 54.6138 152.728 56.5765 152.728H72.1925V80.408L57.3445 89.368C56.5765 89.88 55.8938 90.136 55.2965 90.136C54.6138 90.136 54.0165 89.6667 53.5045 88.728L52.9925 87.96C52.6512 87.3627 52.4805 86.808 52.4805 86.296C52.4805 85.3573 52.9925 84.5893 54.0165 83.992L72.9605 72.6C73.6432 72.1733 74.4538 71.96 75.3925 71.96H76.1605C78.1232 71.96 79.1045 72.9413 79.1045 74.904V152.728H94.7205C96.6832 152.728 97.6645 153.667 97.6645 155.544V156.44C97.6645 157.379 97.4085 158.061 96.8965 158.488C96.4698 158.829 95.7445 159 94.7205 159H56.5765ZM149.42 160.92C136.278 160.92 126.294 156.995 119.468 149.144C112.641 141.208 109.228 129.987 109.228 115.48C109.228 100.973 112.641 89.7947 119.468 81.944C126.294 74.008 136.278 70.04 149.42 70.04C162.561 70.04 172.545 74.008 179.372 81.944C186.198 89.7947 189.612 100.973 189.612 115.48C189.612 129.987 186.198 141.208 179.372 149.144C172.545 156.995 162.561 160.92 149.42 160.92ZM169.9 81.688C164.609 77.848 157.782 75.928 149.42 75.928C138.412 75.928 130.049 79.2987 124.332 86.04C118.7 92.696 115.884 102.509 115.884 115.48C115.884 128.792 118.828 138.776 124.716 145.432L169.9 81.688ZM149.42 155.032C160.428 155.032 168.748 151.704 174.38 145.048C180.097 138.307 182.956 128.451 182.956 115.48C182.956 102.68 180.14 92.8667 174.507 86.04L129.452 149.656C134.572 153.24 141.228 155.032 149.42 155.032Z" fill="#B366FF"/>
<path d="M120.798 218.497C110.618 208.317 94.1128 208.317 83.9327 218.497C73.7526 228.677 73.7526 245.182 83.9327 255.362L117.112 288.541C119.148 290.577 122.449 290.577 124.485 288.541L157.664 255.362L157.66 255.359C167.474 245.152 167.352 228.923 157.295 218.866C147.238 208.809 131.008 208.687 120.802 218.501L120.798 218.497Z" fill="#B366FF"/>
<path d="M757.423 959C758.447 959 759.215 959.171 759.727 959.512C760.154 959.939 760.367 960.621 760.367 961.56V962.456C760.367 964.333 759.386 965.272 757.423 965.272H741.807V1037.59L756.655 1028.63C757.423 1028.12 758.106 1027.86 758.703 1027.86C759.386 1027.86 759.983 1028.33 760.495 1029.27L761.007 1030.04C761.349 1030.64 761.519 1031.19 761.519 1031.7C761.519 1032.64 761.007 1033.41 759.983 1034.01L741.039 1045.4C740.357 1045.83 739.546 1046.04 738.607 1046.04H737.839C735.877 1046.04 734.896 1045.06 734.896 1043.1V965.272H719.279C717.317 965.272 716.335 964.333 716.335 962.456V961.56C716.335 960.621 716.591 959.939 717.103 959.512C717.53 959.171 718.255 959 719.279 959H757.423ZM664.58 957.08C677.722 957.08 687.706 961.005 694.532 968.856C701.359 976.792 704.772 988.013 704.772 1002.52C704.772 1017.03 701.359 1028.21 694.532 1036.06C687.706 1043.99 677.722 1047.96 664.58 1047.96C651.439 1047.96 641.455 1043.99 634.628 1036.06C627.802 1028.21 624.388 1017.03 624.388 1002.52C624.388 988.013 627.802 976.792 634.628 968.856C641.455 961.005 651.439 957.08 664.58 957.08ZM644.1 1036.31C649.391 1040.15 656.218 1042.07 664.58 1042.07C675.588 1042.07 683.951 1038.7 689.668 1031.96C695.3 1025.3 698.116 1015.49 698.116 1002.52C698.116 989.208 695.172 979.224 689.284 972.568L644.1 1036.31ZM664.58 962.968C653.572 962.968 645.252 966.296 639.62 972.952C633.903 979.693 631.044 989.549 631.044 1002.52C631.044 1015.32 633.86 1025.13 639.493 1031.96L684.548 968.344C679.428 964.76 672.772 962.968 664.58 962.968Z" fill="#B366FF"/>
<path d="M693.202 899.503C703.382 909.683 719.887 909.683 730.067 899.503C740.247 889.323 740.247 872.818 730.067 862.638L696.888 829.459C694.852 827.423 691.551 827.423 689.515 829.459L656.336 862.638L656.34 862.641C646.526 872.848 646.648 889.077 656.705 899.134C666.762 909.191 682.992 909.313 693.198 899.499L693.202 899.503Z" fill="#B366FF"/>
</g>
<path d="M377.261 464.326C385.879 455.708 399.851 455.707 408.47 464.325L411.247 467.102L414.074 464.384C422.713 456.078 436.453 456.181 444.966 464.694C453.48 473.208 453.583 486.948 445.276 495.587L445.139 495.73L412.156 528.712C411.682 529.186 410.914 529.187 410.44 528.713L377.261 495.534C368.643 486.916 368.643 472.944 377.261 464.326Z" stroke="#B366FF" stroke-width="8"/>
<path d="M209.261 626.326C217.879 617.708 231.851 617.707 240.47 626.325L243.247 629.102L246.074 626.384C254.713 618.078 268.453 618.181 276.966 626.694C285.48 635.208 285.583 648.948 277.276 657.587L277.139 657.73L244.156 690.712C243.682 691.186 242.914 691.187 242.44 690.713L209.261 657.534C200.643 648.916 200.643 634.944 209.261 626.326Z" stroke="#B366FF" stroke-width="8"/>
<path d="M373.261 626.326C381.879 617.708 395.851 617.707 404.47 626.325L407.247 629.102L410.074 626.384C418.713 618.078 432.453 618.181 440.966 626.694C449.48 635.208 449.583 648.948 441.276 657.587L441.139 657.73L408.156 690.712C407.682 691.186 406.914 691.187 406.44 690.713L373.261 657.534C364.643 648.916 364.643 634.944 373.261 626.326Z" stroke="#B366FF" stroke-width="8"/>
<path d="M377.261 788.326C385.879 779.708 399.851 779.707 408.47 788.325L411.247 791.102L414.074 788.384C422.713 780.078 436.453 780.181 444.966 788.694C453.48 797.208 453.583 810.948 445.276 819.587L445.139 819.73L412.156 852.712C411.682 853.186 410.914 853.187 410.44 852.713L377.261 819.534C368.643 810.916 368.643 796.944 377.261 788.326Z" stroke="#B366FF" stroke-width="8"/>
<path d="M545.261 626.326C553.879 617.708 567.851 617.707 576.47 626.325L579.247 629.102L582.074 626.384C590.713 618.078 604.453 618.181 612.966 626.694C621.48 635.208 621.583 648.948 613.276 657.587L613.139 657.73L580.156 690.712C579.682 691.186 578.914 691.187 578.44 690.713L545.261 657.534C536.643 648.916 536.643 634.944 545.261 626.326Z" stroke="#B366FF" stroke-width="8"/>
<path d="M545.261 464.326C553.879 455.708 567.851 455.707 576.47 464.325L579.247 467.102L582.074 464.384C590.713 456.078 604.453 456.181 612.966 464.694C621.48 473.208 621.583 486.948 613.276 495.587L613.139 495.73L580.156 528.712C579.682 529.186 578.914 529.187 578.44 528.713L545.261 495.534C536.643 486.916 536.643 472.944 545.261 464.326Z" stroke="#B366FF" stroke-width="8"/>
<path d="M209.261 464.326C217.879 455.708 231.851 455.707 240.47 464.325L243.247 467.102L246.074 464.384C254.713 456.078 268.453 456.181 276.966 464.694C285.48 473.208 285.583 486.948 277.276 495.587L277.139 495.73L244.156 528.712C243.682 529.186 242.914 529.187 242.44 528.713L209.261 495.534C200.643 486.916 200.643 472.944 209.261 464.326Z" stroke="#B366FF" stroke-width="8"/>
<path d="M545.261 302.326C553.879 293.708 567.851 293.707 576.47 302.325L579.247 305.102L582.074 302.384C590.713 294.078 604.453 294.181 612.966 302.694C621.48 311.208 621.583 324.948 613.276 333.587L613.139 333.73L580.156 366.712C579.682 367.186 578.914 367.187 578.44 366.713L545.261 333.534C536.643 324.916 536.643 310.944 545.261 302.326Z" stroke="#B366FF" stroke-width="8"/>
<path d="M209.261 302.326C217.879 293.708 231.851 293.707 240.47 302.325L243.247 305.102L246.074 302.384C254.713 294.078 268.453 294.181 276.966 302.694C285.48 311.208 285.583 324.948 277.276 333.587L277.139 333.73L244.156 366.712C243.682 367.186 242.914 367.187 242.44 366.713L209.261 333.534C200.643 324.916 200.643 310.944 209.261 302.326Z" stroke="#B366FF" stroke-width="8"/>
<path d="M377.261 302.326C385.879 293.708 399.851 293.707 408.47 302.325L411.247 305.102L414.074 302.384C422.713 294.078 436.453 294.181 444.966 302.694C453.48 311.208 453.583 324.948 445.276 333.587L445.139 333.73L412.156 366.712C411.682 367.186 410.914 367.187 410.44 366.713L377.261 333.534C368.643 324.916 368.643 310.944 377.261 302.326Z" stroke="#B366FF" stroke-width="8"/>
<defs>
<clipPath id="clip0_31_2021">
<rect width="722" height="1022" fill="white" transform="translate(46 48)"/>
</clipPath>
</defs>
</svg>
